X: 20208
T: Joe Bane's
R: polka
M: 2/4
K: Adorian
|:E|A2- AG/E/|cd ed|cA B/A/G/B/|AE DG|
AB/A/ G/A/G/E/|B/c/d ee/d/|cA B/A/^G|A2 A:|
|:d|e>a ed|ea ed|B/c/d ef|gf/g/ a/g/f/d/|
ea ed|ea e>d|cA B/A/^G|A2- A:|

